src/assets/patterns/rogue.svg

<svg xmlns="http://www.w3.org/2000/svg" width="360" height="48" fill="none"><path fill="currentColor" d="m111.4 21-3-4.9-5.4 32.1-.1.1h1.9l6.6-27.2zM102 5.1 99.1.3l-2.8 4.8L98 48.3h2.2l1.7-43.2zM86.9 21h-.1l6.6 27.2v.1h1.9l-5.5-32.2zm28.5 6.8-2.8-4.8-7.1 25.3h2.3l7.6-20.4zm-8.3-13.9-3.7-6.3-2.8 40.7h1.8zM85.6 23l-2.8 4.8 7.6 20.4v.1h2.3l-7-25zm-40.3-6.9-3 4.9 6.6 27.2v.1h1.9l-5.5-31.9zm1.3-2.3v.1l4.7 34.3v.1h1.8L50.3 7.6zm16 .1-3.7-6.3-2.8 40.7h1.8zm8.3 13.9L68.1 23 61 48.1v.2h2.3l7.6-20.4zm-32.6 0 7.6 20.4v.1h2.3L41.1 23zM77 32.9 95.3.2l.1-.2h-4.9L79.1 27.3 89.1.2l.1-.2H86l-7.5 26.5L84.9.2V0h-2.5L78 25.4 81.5 0H79l-1.7 24.1 1-24.1h-2.9l1 24.1L74.7.2V0h-2.5l3.5 25.4L71.4.2V0h-2.6l6.4 26.5L67.8.1l-.1-.1h-3.2l10.1 27.3L63.2 0h-4.9l18.4 32.9zm-5-3.2-7.8 18.4-.1.2h3.6L75.1 35zm79.6-15.8-3.7-6.3-2.8 40.7h1.8zm-5.1-8.8L143.6.3l-2.8 4.8 1.8 43.2h2.1zm13.4 22.7-2.8-4.8-7.1 25.3h2.3l7.6-20.4zM94.8 7.6l-3.7 6.2v.1l4.7 34.3v.1h1.8L94.8 8zM130.1 23l-2.8 4.8 7.6 20.4v.1h2.4l-7.1-25zm30.9 6.7-7.8 18.4v.2h3.5l7.5-13.3zM66.9 21l-3-4.9-5.5 32.1v.1h1.9l6.5-27.2zm68.7-7.2v.1l4.7 34.3v.1h1.8l-2.8-40.7zm20.3 7.2-2.9-4.9-5.5 32.1-.1.1h1.9l6.6-27.2zm-21.6-4.9-2.9 4.9 6.5 27.2v.1h1.9l-5.5-31.9zm-12.8 16.8L139.8.2l.1-.2H135l-11.4 27.3L133.7.2V0h-3.2L123 26.5 129.4.2V0h-2.5l-4.4 25.4L126 0h-2.5l-1.7 24.1 1-24.1h-2.9l1 24.1L119.2.2V0h-2.5l3.5 25.4L115.9.2V0h-2.6l6.4 26.5L112.3.1V0H109l10.2 27.3L107.7 0h-4.9l18.5 32.9zm-5-3.2-7.8 18.4v.2h3.5l7.5-13.3zm-82.4 5.2-.1.1 7.5 13.3H45l-7.8-18.6zM309.4 21l6.6 27.2v.1h1.9l-5.6-32.2zm8-13.4-3.7 6.2v.1l4.7 34.3v.1h1.8L317.4 8zm-13.1 22.1-3.1 5.2-.1.1 7.5 13.2v.1h3.5l-7.7-18.4zm-.7 18.6h1.5l-1.4-2.3zm1.8-20.5 7.5 20.4.1.1h2.3L308.2 23zM334 21l-3-4.9-5.5 32.1v.1h1.9l6.5-27.2zm-4.3-7.1L326 7.6l-2.8 40.6v.1h1.8zm14.2 24.9-2.8 4.7v.1l.2 4.7h5.3l.2-4.7L344 39zm-5.9-11-2.8-4.8-7.2 25.3h2.4l7.6-20.4zM324.5 5.1 321.7.3l-2.8 4.8h-.1l1.8 43.2h2.2zM342.2 35l-3.1-5.3-7.9 18.6h3.6zm15.4-35-11.4 27.3 10-27.1.1-.2h-3.2l-7.5 26.5L352 .2V0h-2.6l-4.3 25.4L348.6 0h-2.5l-1.7 24.1 1-23.9V0h-2.9l1 24.1L341.8.2V0h-2.5l3.5 25.4L338.5.2l-.1-.2h-2.5l6.4 26.5L334.9.1l-.1-.1h-3.2l10.1 27.3L330.3 0h-4.9l18.4 32.9h.2l16.1-28.6V0zm-9.5 48.3h1.5l-1.3-2.3zm-225-13.4v.1l7.4 13.3h3.6l-7.9-18.6zM57.4 5.1 54.6.3l-2.8 4.8h-.1l1.8 43.1v.1h2.2zm68.1 43.2h1.5l-1.3-2.3zm44.5 0h1.5l-1.3-2.3zm45.3-18.6-3.2 5.2v.1l7.4 13.2.1.1h3.5l-7.7-18.4zm-47.7 5.2v.1l7.5 13.3h3.5l-7.9-18.6zm46.9 13.4h1.5l-1.3-2.3zm-178 0H38L36.6 46zm42.1-13.4v.1L86 48.3h3.6l-7.9-18.6zM81 48.3h1.5L81.2 46zm178.1 0h1.5l-1.4-2.3zm.7-18.6-3.1 5.2-.1.1 7.5 13.2v.1h3.5l-7.7-18.4zm39.7 3.2L317.9.2l.1-.2h-4.9l-11.5 27.3L311.7.2l.1-.2h-3.3l-7.4 26.5L307.4.2l.1-.2h-2.6l-4.3 25.4L304.1 0h-2.5l-1.7 24.1 1-23.9V0H298l.9 24.1L297.3.2V0h-2.5l3.5 25.4L294 .2l-.1-.2h-2.5l6.4 26.5L290.3.1V0h-3.2l10.1 27.3L285.8 0h-4.9l18.4 32.9zm-133.5 0L184.3.2l.1-.2h-4.9l-11.4 27.3L178.2.2V0H175l-7.4 26.5L173.9.2V0h-2.5L167 25.4 170.5 0H168l-1.6 24.1 1-24.1h-3l1 24.1L163.7.2V0h-2.5l3.5 25.4L160.4.2V0h-2.6l6.4 26.5L156.8.1V0h-3.3l10.2 27.3L152.2 0h-4.9l18.5 32.9zM26.4 27.8 23.6 23l-7.2 25.3h2.4l7.6-20.4zm-8.3-13.9-3.7-6.3-2.8 40.7h1.8zm4.3 7.1-3-4.9-5.5 32.1v.1h1.9l6.5-27.2zm5.1 8.7-7.8 18.4-.1.2h3.6L30.6 35zM5.8 7.6l-3.7 6.2v.1l4.7 34.3v.1h1.8L5.8 8zm262 8.5-2.9 4.9 6.6 27.2v.1h1.8l-5.4-31.9zM.7 16.1l-.8 1.4v12.1l4.5 18.6v.1h1.9L.8 16.4zm12.2-11L10.1.3 7.3 5.1h-.1L9 48.3h2.1zM297.7 35l-3.1-5.3-7.8 18.4-.1.2h3.5zM272.9 7.6l-3.7 6.2-.1.1 4.8 34.3v.1h1.8L272.9 8zm-12.1 20.2 7.6 20.4.1.1h2.3L263.7 23zM32.4 32.9 50.8.2l.1-.2H46L34.6 27.3 44.6.2l.1-.2h-3.2L34 26.5 40.4.2V0h-2.6l-4.3 25.4L37 0h-2.5l-1.7 24.1 1-24.1h-2.9l1 24.2-1.7-24V0h-2.5l3.5 25.4L26.9.2l-.1-.2h-2.5l6.4 26.5L23.3.1l-.1-.1H20l10.1 27.3L18.7 0h-4.9l18.4 32.9zM-.1 48.3h.6l-.6-1.5zm0-4 1.5 4h2.3L-.1 34.6zm26.8 4h1.5L28 46zM1.5 0-.1 3.8v7.9L6.4 0zm336.8 48.3h1.5l-.2-2.3zm-86.2-4.7.2 4.7h5.3l.2-4.7-2.9-4.8zm-2.8 4.7h1.5l-.2-2.3zm44.5 0h1.5l-.2-2.3zm63.1-32.2-3 4.9 6.2 25.7V35.2zm-8.1 13.6-3.1 5.2v.1l7.4 13.2v.1h3.5l-7.7-18.4zm9.4-15.8 1.7 12.3h.2V10.6l-1.9 3.2zm-8.3 13.9 7.6 20.4v.1h2.3L352.7 23zm-53.3 15.8.2 4.7h5.3l.2-4.7-2.9-4.8zm-180.9 4.7h1.5l-.1-2.3zM74 43.5v.1l.2 4.7h5.3l.2-4.7-2.8-4.8zm-2.8 4.8h1.5l-.2-2.3zm-41.7-4.8v.1l.2 4.7H35l.2-4.7-2.9-4.8zm180.9-4.7-2.8 4.7v.1l.1 4.7h5.3l.2-4.7-2.7-4.6zm-91.9 4.7v.1l.2 4.7h5.3l.2-4.7-2.8-4.8zm44.6 0-.1.1.2 4.7h5.3l.2-4.7-2.8-4.8zm41.7 4.8h1.4l-.1-2.3zm-44.6 0h1.5l-.1-2.3zm50.3-15.4L228.9.2l.1-.2h-4.9l-11.5 27.3L222.7.2V0h-3.2l-7.4 26.5L218.4.2V0h-2.5l-4.4 25.4L215 0h-2.5l-1.6 24.1 1-23.9V0h-3l1 24.1L208.2.2V0h-2.4l3.4 25.4L204.9.2V0h-2.6l6.4 26.5L201.3.1V0H198l10.2 27.3L196.7 0h-4.9l18.5 32.9zM183.8 7.6l-3.7 6.2v.1l4.7 34.3v.1h1.9L183.9 8zM208.7 35l-3.2-5.3-7.7 18.4-.1.2h3.5zm-36.9-7.2 7.6 20.4v.1h2.4L174.7 23zm28.6-6.8-2.9-4.9-5.5 32.1v.1h1.8l6.6-27.2zm-21.6-4.9-2.9 4.9 6.5 27.2.1.1h1.8l-5.4-31.9zM280 5.1 277.2.3l-2.9 4.8 1.8 43.1v.1h2.1zm-89 0L188.1.3l-2.8 4.8 1.8 43.1v.1h2.1zm13.5 22.7-2.9-4.8-7.1 25.1v.2h2.4l7.5-20.4zm-8.3-13.9-3.8-6.3-2.8 40.6v.1h1.8zm89 0-3.7-6.3-2.8 40.6-.1.1h1.9zm8.3 13.9-2.9-4.8-7 25.1-.1.2h2.4l7.6-20.4zM244.9 21l-2.9-4.9-5.5 32.1v.1h1.8l6.6-27.2zm44.5 0-2.9-4.9-5.5 32.1v.1h1.9l6.5-27.2zM235.5 5.1 232.7.3l-2.9 4.8 1.8 43.2h2.1zm5.2 8.8L237 7.6l-2.9 40.6v.1h1.8zm8.3 13.9-2.9-4.8-7.1 25.3h2.4l7.6-20.4zM220.4 21l6.5 27.2.1.1h1.8l-5.5-32.2zm-4.1 6.8 7.6 20.4v.1h2.4L219.2 23zm36.9 7.2-3.2-5.3-7.7 18.4-.1.2h3.5zm1.8-2.1L273.4.2l.1-.2h-4.9l-11.5 27.3L267.2.2l.1-.2H264l-7.4 26.5L262.9.2l.1-.2h-2.6l-4.3 25.4L259.5 0h-2.4l-1.7 24.1 1-23.9V0h-3l1 24.1L252.8.2V0h-2.5l3.5 25.4L249.4.2V0h-2.5l6.3 26.5L245.8.1V0h-3.2l10.1 27.3L241.3 0h-5l18.5 32.9zM228.3 7.6l-3.6 6.2-.1.1 4.7 34.3.1.1h1.8L228.4 8z"/></svg>

<svg width="360" height="48" viewBox="0 0 360 48" fill="none" xmlns="http://www.w3.org/2000/svg">
<path d="M111.4 21L108.4 16.1L103 48.2L102.9 48.3H104.8L111.4 21.1V21Z" fill="currentColor"/>
<path d="M102 5.1L99.1 0.3L96.3 5.1L98 48.3H100.2L101.9 5.1H102Z" fill="currentColor"/>
<path d="M86.9 21H86.8L93.4 48.2V48.3H95.3L89.8 16.1L86.9 21Z" fill="currentColor"/>
<path d="M115.4 27.8L112.6 23L105.5 48.3H107.8L115.4 27.9V27.8Z" fill="currentColor"/>
<path d="M107.1 13.9L103.4 7.6L100.6 48.3H102.4L107.1 13.9Z" fill="currentColor"/>
<path d="M85.6 23L82.8 27.8L90.4 48.2V48.3H92.7L85.7 23.3L85.6 23Z" fill="currentColor"/>
<path d="M45.3 16.1L42.3 21L48.9 48.2V48.3H50.8L45.3 16.4V16.1Z" fill="currentColor"/>
<path d="M46.6 13.8V13.9L51.3 48.2V48.3H53.1L50.3 7.6L46.6 13.8Z" fill="currentColor"/>
<path d="M62.6 13.9L58.9 7.6L56.1 48.3H57.9L62.6 13.9Z" fill="currentColor"/>
<path d="M70.9 27.8L68.1 23L61 48.1V48.3H63.3L70.9 27.9V27.8Z" fill="currentColor"/>
<path d="M38.3 27.8L45.9 48.2V48.3H48.2L41.1 23L38.3 27.8Z" fill="currentColor"/>
<path d="M77 32.9L95.3 0.2L95.4 0H90.5L79.1 27.3L89.1 0.2L89.2 0H86L78.5 26.5L84.9 0.2V0H82.4L78 25.4L81.5 0H79L77.3 24.1L78.3 0H75.4L76.4 24.1L74.7 0.2V0H72.2L75.7 25.4L71.4 0.2V0H68.8L75.2 26.5L67.8 0.1L67.7 0H64.5L74.6 27.3L63.2 0H58.3L76.7 32.9H77Z" fill="currentColor"/>
<path d="M72 29.7L64.2 48.1L64.1 48.3H67.7L75.1 35L72 29.7Z" fill="currentColor"/>
<path d="M151.6 13.9L147.9 7.6L145.1 48.3H146.9L151.6 13.9Z" fill="currentColor"/>
<path d="M146.5 5.1L143.6 0.3L140.8 5.1L142.6 48.3H144.7L146.5 5.1Z" fill="currentColor"/>
<path d="M159.9 27.8L157.1 23L150 48.3H152.3L159.9 27.9V27.8Z" fill="currentColor"/>
<path d="M94.8 7.6L91.1 13.8V13.9L95.8 48.2V48.3H97.6L94.8 8V7.6Z" fill="currentColor"/>
<path d="M130.1 23L127.3 27.8L134.9 48.2V48.3H137.3L130.2 23.3L130.1 23Z" fill="currentColor"/>
<path d="M161 29.7L153.2 48.1V48.3H156.7L164.2 35L161 29.7Z" fill="currentColor"/>
<path d="M66.9 21L63.9 16.1L58.4 48.2V48.3H60.3L66.8 21.1L66.9 21Z" fill="currentColor"/>
<path d="M135.6 13.8V13.9L140.3 48.2V48.3H142.1L139.3 7.6L135.6 13.8Z" fill="currentColor"/>
<path d="M155.9 21L153 16.1L147.5 48.2L147.4 48.3H149.3L155.9 21.1V21Z" fill="currentColor"/>
<path d="M134.3 16.1L131.4 21L137.9 48.2V48.3H139.8L134.3 16.4V16.1Z" fill="currentColor"/>
<path d="M121.5 32.9L139.8 0.2L139.9 0H135L123.6 27.3L133.7 0.2V0H130.5L123 26.5L129.4 0.2V0H126.9L122.5 25.4L126 0H123.5L121.8 24.1L122.8 0H119.9L120.9 24.1L119.2 0.2V0H116.7L120.2 25.4L115.9 0.2V0H113.3L119.7 26.5L112.3 0.1V0H109L119.2 27.3L107.7 0H102.8L121.3 32.9H121.5Z" fill="currentColor"/>
<path d="M116.5 29.7L108.7 48.1V48.3H112.2L119.7 35L116.5 29.7Z" fill="currentColor"/>
<path d="M34.1 34.9L34 35L41.5 48.3H45L37.2 29.7L34.1 34.9Z" fill="currentColor"/>
<path d="M309.4 21L316 48.2V48.3H317.9L312.3 16.1L309.4 21Z" fill="currentColor"/>
<path d="M317.4 7.6L313.7 13.8V13.9L318.4 48.2V48.3H320.2L317.4 8V7.6Z" fill="currentColor"/>
<path d="M304.3 29.7L301.2 34.9L301.1 35L308.6 48.2V48.3H312.1L304.4 29.9L304.3 29.7Z" fill="currentColor"/>
<path d="M303.6 48.3H305.1L303.7 46L303.6 48.3Z" fill="currentColor"/>
<path d="M305.4 27.8L312.9 48.2L313 48.3H315.3L308.2 23L305.4 27.8Z" fill="currentColor"/>
<path d="M334 21L331 16.1L325.5 48.2V48.3H327.4L333.9 21.1L334 21Z" fill="currentColor"/>
<path d="M329.7 13.9L326 7.6L323.2 48.2V48.3H325L329.7 13.9Z" fill="currentColor"/>
<path d="M343.9 38.8L341.1 43.5V43.6L341.3 48.3H346.6L346.8 43.6L344 39L343.9 38.8Z" fill="currentColor"/>
<path d="M338 27.8L335.2 23L328 48.3H330.4L338 27.9V27.8Z" fill="currentColor"/>
<path d="M324.5 5.1L321.7 0.3L318.9 5.1H318.8L320.6 48.3H322.8L324.5 5.1Z" fill="currentColor"/>
<path d="M342.2 35L339.1 29.7L331.2 48.3H334.8L342.2 35Z" fill="currentColor"/>
<path d="M357.6 0L346.2 27.3L356.2 0.2L356.3 0H353.1L345.6 26.5L352 0.2V0H349.4L345.1 25.4L348.6 0H346.1L344.4 24.1L345.4 0.2V0H342.5L343.5 24.1L341.8 0.2V0H339.3L342.8 25.4L338.5 0.2L338.4 0H335.9L342.3 26.5L334.9 0.1L334.8 0H331.6L341.7 27.3L330.3 0H325.4L343.8 32.9H344L360.1 4.3V0H357.6Z" fill="currentColor"/>
<path d="M348.1 48.3H349.6L348.3 46L348.1 48.3Z" fill="currentColor"/>
<path d="M123.1 34.9V35L130.5 48.3H134.1L126.2 29.7L123.1 34.9Z" fill="currentColor"/>
<path d="M57.4 5.1L54.6 0.3L51.8 5.1H51.7L53.5 48.2V48.3H55.7L57.4 5.1Z" fill="currentColor"/>
<path d="M125.5 48.3H127L125.7 46L125.5 48.3Z" fill="currentColor"/>
<path d="M170 48.3H171.5L170.2 46L170 48.3Z" fill="currentColor"/>
<path d="M215.3 29.7L212.1 34.9V35L219.5 48.2L219.6 48.3H223.1L215.4 29.9L215.3 29.7Z" fill="currentColor"/>
<path d="M167.6 34.9V35L175.1 48.3H178.6L170.7 29.7L167.6 34.9Z" fill="currentColor"/>
<path d="M214.5 48.3H216L214.7 46L214.5 48.3Z" fill="currentColor"/>
<path d="M36.5 48.3H38L36.6 46L36.5 48.3Z" fill="currentColor"/>
<path d="M78.6 34.9V35L86 48.3H89.6L81.7 29.7L78.6 34.9Z" fill="currentColor"/>
<path d="M81 48.3H82.5L81.2 46L81 48.3Z" fill="currentColor"/>
<path d="M259.1 48.3H260.6L259.2 46L259.1 48.3Z" fill="currentColor"/>
<path d="M259.8 29.7L256.7 34.9L256.6 35L264.1 48.2V48.3H267.6L259.9 29.9L259.8 29.7Z" fill="currentColor"/>
<path d="M299.5 32.9L317.9 0.2L318 0H313.1L301.6 27.3L311.7 0.2L311.8 0H308.5L301.1 26.5L307.4 0.2L307.5 0H304.9L300.6 25.4L304.1 0H301.6L299.9 24.1L300.9 0.2V0H298L298.9 24.1L297.3 0.2V0H294.8L298.3 25.4L294 0.2L293.9 0H291.4L297.8 26.5L290.3 0.1V0H287.1L297.2 27.3L285.8 0H280.9L299.3 32.9H299.5Z" fill="currentColor"/>
<path d="M166 32.9L184.3 0.2L184.4 0H179.5L168.1 27.3L178.2 0.2V0H175L167.6 26.5L173.9 0.2V0H171.4L167 25.4L170.5 0H168L166.4 24.1L167.4 0H164.4L165.4 24.1L163.7 0.2V0H161.2L164.7 25.4L160.4 0.2V0H157.8L164.2 26.5L156.8 0.1V0H153.5L163.7 27.3L152.2 0H147.3L165.8 32.9H166Z" fill="currentColor"/>
<path d="M26.4 27.8L23.6 23L16.4 48.3H18.8L26.4 27.9V27.8Z" fill="currentColor"/>
<path d="M18.1 13.9L14.4 7.6L11.6 48.3H13.4L18.1 13.9Z" fill="currentColor"/>
<path d="M22.4 21L19.4 16.1L13.9 48.2V48.3H15.8L22.3 21.1L22.4 21Z" fill="currentColor"/>
<path d="M27.5 29.7L19.7 48.1L19.6 48.3H23.2L30.6 35L27.5 29.7Z" fill="currentColor"/>
<path d="M5.80002 7.6L2.10002 13.8V13.9L6.80002 48.2V48.3H8.60003L5.80002 8V7.6Z" fill="currentColor"/>
<path d="M267.8 16.1L264.9 21L271.5 48.2V48.3H273.3L267.9 16.4L267.8 16.1Z" fill="currentColor"/>
<path d="M0.700024 16.1L-0.0999756 17.5V29.6L4.40002 48.2V48.3H6.30002L0.800024 16.4L0.700024 16.1Z" fill="currentColor"/>
<path d="M12.9 5.1L10.1 0.3L7.30002 5.1H7.20002L9.00002 48.3H11.1L12.9 5.1Z" fill="currentColor"/>
<path d="M297.7 35L294.6 29.7L286.8 48.1L286.7 48.3H290.2L297.7 35Z" fill="currentColor"/>
<path d="M272.9 7.6L269.2 13.8L269.1 13.9L273.9 48.2V48.3H275.7L272.9 8V7.6Z" fill="currentColor"/>
<path d="M260.8 27.8L268.4 48.2L268.5 48.3H270.8L263.7 23L260.8 27.8Z" fill="currentColor"/>
<path d="M32.4 32.9L50.8 0.2L50.9 0H46L34.6 27.3L44.6 0.2L44.7 0H41.5L34 26.5L40.4 0.2V0H37.8L33.5 25.4L37 0H34.5L32.8 24.1L33.8 0H30.9L31.9 24.2L30.2 0.2V0H27.7L31.2 25.4L26.9 0.2L26.8 0H24.3L30.7 26.5L23.3 0.1L23.2 0H20L30.1 27.3L18.7 0H13.8L32.2 32.9H32.4Z" fill="currentColor"/>
<path d="M-0.0999756 48.3H0.500024L-0.0999756 46.8V48.3Z" fill="currentColor"/>
<path d="M-0.0999756 44.3L1.40002 48.3H3.70002L-0.0999756 34.6V44.3Z" fill="currentColor"/>
<path d="M26.7 48.3H28.2L28 46L26.7 48.3Z" fill="currentColor"/>
<path d="M1.50002 0L-0.0999756 3.8V11.7L6.40002 0H1.50002Z" fill="currentColor"/>
<path d="M338.3 48.3H339.8L339.6 46L338.3 48.3Z" fill="currentColor"/>
<path d="M252.1 43.6L252.3 48.3H257.6L257.8 43.6L254.9 38.8L252.1 43.6Z" fill="currentColor"/>
<path d="M249.3 48.3H250.8L250.6 46L249.3 48.3Z" fill="currentColor"/>
<path d="M293.8 48.3H295.3L295.1 46L293.8 48.3Z" fill="currentColor"/>
<path d="M356.9 16.1L353.9 21L360.1 46.7V35.2L356.9 16.1Z" fill="currentColor"/>
<path d="M348.8 29.7L345.7 34.9V35L353.1 48.2V48.3H356.6L348.9 29.9L348.8 29.7Z" fill="currentColor"/>
<path d="M358.2 13.9L359.9 26.2H360.1V10.6L358.2 13.8V13.9Z" fill="currentColor"/>
<path d="M349.9 27.8L357.5 48.2V48.3H359.8L352.7 23L349.9 27.8Z" fill="currentColor"/>
<path d="M296.6 43.6L296.8 48.3H302.1L302.3 43.6L299.4 38.8L296.6 43.6Z" fill="currentColor"/>
<path d="M115.7 48.3H117.2L117.1 46L115.7 48.3Z" fill="currentColor"/>
<path d="M74 43.5V43.6L74.2 48.3H79.5L79.7 43.6L76.9 38.8L74 43.5Z" fill="currentColor"/>
<path d="M71.2 48.3H72.7L72.5 46L71.2 48.3Z" fill="currentColor"/>
<path d="M29.5 43.5V43.6L29.7 48.3H35L35.2 43.6L32.3 38.8L29.5 43.5Z" fill="currentColor"/>
<path d="M210.4 38.8L207.6 43.5V43.6L207.7 48.3H213L213.2 43.6L210.5 39L210.4 38.8Z" fill="currentColor"/>
<path d="M118.5 43.5V43.6L118.7 48.3H124L124.2 43.6L121.4 38.8L118.5 43.5Z" fill="currentColor"/>
<path d="M163.1 43.5L163 43.6L163.2 48.3H168.5L168.7 43.6L165.9 38.8L163.1 43.5Z" fill="currentColor"/>
<path d="M204.8 48.3H206.2L206.1 46L204.8 48.3Z" fill="currentColor"/>
<path d="M160.2 48.3H161.7L161.6 46L160.2 48.3Z" fill="currentColor"/>
<path d="M210.5 32.9L228.9 0.2L229 0H224.1L212.6 27.3L222.7 0.2V0H219.5L212.1 26.5L218.4 0.2V0H215.9L211.5 25.4L215 0H212.5L210.9 24.1L211.9 0.2V0H208.9L209.9 24.1L208.2 0.2V0H205.8L209.2 25.4L204.9 0.2V0H202.3L208.7 26.5L201.3 0.1V0H198L208.2 27.3L196.7 0H191.8L210.3 32.9H210.5Z" fill="currentColor"/>
<path d="M183.8 7.6L180.1 13.8V13.9L184.8 48.2V48.3H186.7L183.9 8L183.8 7.6Z" fill="currentColor"/>
<path d="M208.7 35L205.5 29.7L197.8 48.1L197.7 48.3H201.2L208.7 35Z" fill="currentColor"/>
<path d="M171.8 27.8L179.4 48.2V48.3H181.8L174.7 23L171.8 27.8Z" fill="currentColor"/>
<path d="M200.4 21L197.5 16.1L192 48.2V48.3H193.8L200.4 21.1V21Z" fill="currentColor"/>
<path d="M178.8 16.1L175.9 21L182.4 48.2L182.5 48.3H184.3L178.9 16.4L178.8 16.1Z" fill="currentColor"/>
<path d="M280 5.1L277.2 0.3L274.3 5.1L276.1 48.2V48.3H278.2L280 5.1Z" fill="currentColor"/>
<path d="M191 5.1L188.1 0.3L185.3 5.1L187.1 48.2V48.3H189.2L191 5.1Z" fill="currentColor"/>
<path d="M204.5 27.8L201.6 23L194.5 48.1V48.3H196.9L204.4 27.9L204.5 27.8Z" fill="currentColor"/>
<path d="M196.2 13.9L192.4 7.6L189.6 48.2V48.3H191.4L196.2 13.9Z" fill="currentColor"/>
<path d="M285.2 13.9L281.5 7.6L278.7 48.2L278.6 48.3H280.5L285.2 13.9Z" fill="currentColor"/>
<path d="M293.5 27.8L290.6 23L283.6 48.1L283.5 48.3H285.9L293.5 27.9V27.8Z" fill="currentColor"/>
<path d="M244.9 21L242 16.1L236.5 48.2V48.3H238.3L244.9 21.1V21Z" fill="currentColor"/>
<path d="M289.4 21L286.5 16.1L281 48.2V48.3H282.9L289.4 21.1V21Z" fill="currentColor"/>
<path d="M235.5 5.1L232.7 0.3L229.8 5.1L231.6 48.3H233.7L235.5 5.1Z" fill="currentColor"/>
<path d="M240.7 13.9L237 7.6L234.1 48.2V48.3H235.9L240.7 13.9Z" fill="currentColor"/>
<path d="M249 27.8L246.1 23L239 48.3H241.4L249 27.9V27.8Z" fill="currentColor"/>
<path d="M220.4 21L226.9 48.2L227 48.3H228.8L223.3 16.1L220.4 21Z" fill="currentColor"/>
<path d="M216.3 27.8L223.9 48.2V48.3H226.3L219.2 23L216.3 27.8Z" fill="currentColor"/>
<path d="M253.2 35L250 29.7L242.3 48.1L242.2 48.3H245.7L253.2 35Z" fill="currentColor"/>
<path d="M255 32.9L273.4 0.2L273.5 0H268.6L257.1 27.3L267.2 0.2L267.3 0H264L256.6 26.5L262.9 0.2L263 0H260.4L256.1 25.4L259.5 0H257.1L255.4 24.1L256.4 0.2V0H253.4L254.4 24.1L252.8 0.2V0H250.3L253.8 25.4L249.4 0.2V0H246.9L253.2 26.5L245.8 0.1V0H242.6L252.7 27.3L241.3 0H236.3L254.8 32.9H255Z" fill="currentColor"/>
<path d="M228.3 7.6L224.7 13.8L224.6 13.9L229.3 48.2L229.4 48.3H231.2L228.4 8L228.3 7.6Z" fill="currentColor"/>
</svg>
